lib/flags/s/PCN.svg

<svg xmlns="http://www.w3.org/2000/svg" fill="none" viewBox="0 0 16 12"><mask id="PCN_svg__a" width="16" height="12" x="0" y="0" mask-type="alpha" maskUnits="userSpaceOnUse"><path fill="#fff" d="M0 0H16V12H0z"/></mask><g mask="url(#PCN_svg__a)"><path fill="#2E42A5" fill-rule="evenodd" d="M0 0V12H16V0H0Z" clip-rule="evenodd"/><mask id="PCN_svg__b" width="16" height="12" x="0" y="0" mask-type="alpha" maskUnits="userSpaceOnUse"><path fill="#fff" fill-rule="evenodd" d="M0 0V12H16V0H0Z" clip-rule="evenodd"/></mask><g mask="url(#PCN_svg__b)"><path fill="#5EAA22" fill-rule="evenodd" d="M10.308 5.83433C10.308 5.83433 10.3574 6.3543 10.2492 6.64894 10.1409 6.94358 10.0859 7.11462 10.0859 6.92628 10.0859 6.73795 10.0099 6.58869 9.94877 6.58869 9.88763 6.58869 9.93589 6.77546 9.87445 6.77546 9.81301 6.77546 9.60133 6.80757 9.60133 6.69813 9.60133 6.58869 9.57348 6.99171 9.71083 7.02776 9.84819 7.0638 9.64414 7.17564 9.55304 7.141 9.55304 7.141 9.92776 7.25671 10.0747 7.3553 10.0747 7.3553 10.5152 7.87774 10.9272 7.814 10.9272 7.814 10.3662 7.63002 10.465 7.27849 10.5639 6.92695 10.9272 6.8761 10.9272 6.8761 10.9272 6.8761 11.0977 6.93028 11.0926 7.07218 11.0875 7.21408 11.2173 7.02776 11.2173 7.02776 11.2173 7.02776 11.2382 6.84847 11.2152 6.80472 11.1921 6.76097 11.6057 6.67629 11.6318 6.49166 11.6318 6.49166 11.2092 6.51002 11.1802 6.46259 11.1512 6.41516 11.311 6.34081 11.261 6.24835 11.211 6.1559 10.465 6.77546 10.465 6.77546 10.465 6.77546 10.7226 6.35376 10.7226 6.1273 10.7226 5.90085 10.6572 5.74609 10.465 5.74609 10.2729 5.74609 10.308 5.83433 10.308 5.83433zM14.1917 5.95802C14.1912 5.95879 14.1922 5.95951 14.1929 5.95888 14.2204 5.93312 14.3918 5.78319 14.5353 5.90158 14.6919 6.03072 14.4564 6.15657 14.4564 6.15657 14.4564 6.15657 14.5665 6.25801 14.6924 6.25801 14.8183 6.25801 14.8492 6.15657 14.8492 6.15657 14.8492 6.15657 14.8588 6.38232 15.2694 6.4678 15.2694 6.4678 15.4159 6.26797 15.2694 6.15857 15.2694 6.15857 15.4425 6.12446 15.4299 5.99129 15.4299 5.99129 15.2877 6.03734 15.1862 5.93152 15.0847 5.82569 14.887 5.77689 14.7432 5.80129 14.3782 5.67623 14.2139 5.92128 14.1917 5.95802z" clip-rule="evenodd"/><path fill="#96877D" fill-rule="evenodd" d="M11.7018 7.09707C11.7018 7.09707 12.1264 7.85581 11.8611 8.01303C11.5957 8.17025 13.1229 8.05841 13.2668 8.01303C13.4107 7.96765 13.2378 7.72842 13.0782 7.66201C12.9186 7.59559 12.2625 7.37463 12.088 7.20798C11.9135 7.04132 12.02 6.98219 12.1606 6.81768C12.3012 6.65317 12.8216 6.58739 12.8216 6.43363C12.8216 6.27986 13.1517 5.64571 13.3824 5.59787C13.6131 5.55003 13.4885 5.47468 13.4354 5.47468C13.3824 5.47468 13.0634 5.78701 12.9425 5.73066C12.8216 5.67431 12.8068 5.67827 12.9425 5.54207C13.0782 5.40586 13.1804 5.24909 13.001 5.36189C12.8216 5.47468 12.5258 5.6532 12.3837 5.6532C12.2415 5.6532 11.7354 5.59231 11.7982 5.73066C11.8611 5.869 11.8877 6.10915 12.1606 6.27139C12.4335 6.43363 12.3149 6.55235 12.088 6.70868C11.8611 6.86501 11.7018 7.09707 11.7018 7.09707Z" clip-rule="evenodd"/><path fill="#FFD018" d="M14.5193 6.09375 13.7102 7.63529C13.7102 7.63529 13.6866 8.07074 14.2651 7.78058 14.8435 7.49042 14.8207 7.28462 14.9875 7.28462 15.1543 7.28462 15.2072 7.19664 15.2072 7.19664L15.0961 7.11365C15.0961 7.11365 15.0833 6.96228 15.1536 6.92829 15.1536 6.92829 15.0156 6.85604 14.9959 6.91636 14.9762 6.97668 14.8788 6.7902 14.9339 6.7902 14.9339 6.7902 14.8122 6.97741 14.7865 7.05046 14.7865 7.05046 14.6104 6.98243 14.6188 6.66726 14.6273 6.35209 14.5193 6.09375 14.5193 6.09375zM10.6682 5.84954C10.6682 5.84954 10.2562 5.94066 10.3006 6.03548 10.3451 6.1303 10.4105 6.03292 10.2088 6.14719 10.2088 6.14719 9.85447 6.40748 9.77724 6.37927 9.7 6.35107 9.83194 6.44483 9.83194 6.14719 9.83194 5.84954 9.62616 6.09183 9.83194 5.89313 10.0377 5.69444 10.1099 5.84954 10.2088 5.73521 10.3078 5.62088 10.2188 5.68168 10.4873 5.68168 10.7557 5.68168 10.6682 5.84954 10.6682 5.84954zM11.9253 7.38159C11.9253 7.38159 10.7718 8.24277 10.5412 8.30705 10.3107 8.37133 11.0154 8.28937 11.1876 8.17567 11.3597 8.06198 11.9253 7.38159 11.9253 7.38159z"/><path fill="#5EAA22" fill-rule="evenodd" d="M14.2123 8.89228C14.2123 8.89228 14.323 9.57079 14.034 9.50401C13.7449 9.43723 13.625 9.4027 13.625 9.4027C13.625 9.4027 13.731 9.71873 13.8825 9.71873C13.8825 9.71873 14.1406 10.1966 14.0413 10.3475C14.0413 10.3475 14.4859 10.0048 14.414 9.73235C14.3421 9.45991 14.5289 9.77719 14.5289 9.77719C14.5289 9.77719 14.6926 9.85225 14.8108 9.76843C14.9291 9.68461 14.8093 9.72186 14.6911 9.56228C14.5728 9.4027 14.602 8.95452 14.2422 8.72224C13.8825 8.48996 13.7987 8.49738 13.7987 8.49738C13.7987 8.49738 13.5338 8.08585 13.6925 8.11307C13.6925 8.11307 14.8301 8.48354 14.8597 8.57849C14.8892 8.67344 15.1909 8.65604 15.0401 8.38456C14.8892 8.11307 14.0761 7.94946 13.9793 7.87289C13.8825 7.79633 13.9725 7.50595 13.7987 7.44269C13.625 7.37943 13.1502 6.93055 13.1505 6.71423C13.1508 6.49791 12.9273 6.39609 12.733 6.39609C12.5388 6.39609 12.173 6.34277 12.0185 6.34277C11.8639 6.34277 11.7199 6.58835 11.8692 6.58835C12.0185 6.58835 11.891 7.04814 11.641 7.14863C11.391 7.24911 11.1978 7.39353 10.9123 7.39353C10.6269 7.39353 11.3164 7.62735 11.4263 7.53502C11.5362 7.44269 11.5001 7.30511 11.8692 7.14863C12.2383 6.99214 12.5905 6.8995 12.5459 7.02406C12.5013 7.14863 12.6151 7.35698 12.789 7.28157C12.9628 7.20616 13.0186 7.01568 13.0186 7.14863C13.0186 7.28157 13.2852 7.96439 13.4889 8.23089C13.6925 8.49738 14.2123 8.89228 14.2123 8.89228Z" clip-rule="evenodd"/><path fill="#FFD018" d="M11.7856 6.39893C11.7856 6.39893 11.6503 6.60364 11.7856 6.60364 11.9208 6.60364 12.1384 6.60364 12.0058 6.50128 11.8733 6.39893 11.7856 6.39893 11.7856 6.39893zM12.2375 6.39415C12.2375 6.39415 12.2381 6.53026 12.3319 6.53026 12.4256 6.53026 12.509 6.66636 12.509 6.53026 12.509 6.39415 12.6393 6.43929 12.4384 6.39415 12.2375 6.34901 12.2375 6.39415 12.2375 6.39415zM12.8148 6.42529C12.8148 6.42529 12.7244 6.48993 12.7696 6.60522 12.8148 6.72051 12.917 6.94866 12.7696 6.94866 12.6222 6.94866 12.501 7.03091 12.6161 7.03091 12.7312 7.03091 12.9361 7.11317 12.9361 7.03091 12.9361 6.94866 13.0194 7.16654 13.0194 7.03091 13.0194 6.89528 13.0194 6.83047 13.0194 6.75093 13.0194 6.67139 13.1027 6.64852 13.0194 6.53691 12.9361 6.42529 12.8148 6.42529 12.8148 6.42529zM13.0236 7.21899C13.0236 7.21899 13.2119 7.78208 13.3143 7.85468 13.4167 7.92727 13.4627 8.53878 13.5076 8.60527 13.5525 8.67175 14.1649 9.00733 14.1649 9.18741 14.1649 9.3675 14.3535 9.04903 14.2592 8.87071 14.1649 8.69238 13.8681 8.31271 13.6546 8.22991 13.4411 8.14711 13.4682 7.94662 13.4233 7.80571 13.3784 7.66481 13.6889 7.91957 13.4233 7.59995 13.1577 7.28033 13.1647 7.45185 13.2395 7.45185 13.3143 7.45185 13.3891 7.41408 13.3143 7.36441 13.2395 7.31474 13.0236 7.21899 13.0236 7.21899zM11.0271 8.38013C11.0271 8.38013 10.4153 9.40642 10.3062 9.45945 10.197 9.51247 10.1157 9.52325 10.0599 9.45945 10.0041 9.39565 9.99837 9.63067 10.0599 9.69502 10.1214 9.75936 10.3062 9.75936 10.4087 9.6451 10.4087 9.6451 10.425 9.93382 10.5847 10.1515 10.7445 10.3691 10.811 10.309 10.811 10.4321 10.811 10.5552 10.8488 10.7182 10.8976 10.7182 10.9463 10.7182 10.9841 11.1057 10.8976 11.1057 10.811 11.1057 11.0981 11.1374 11.2232 11.0405 11.3483 10.9436 11.4018 10.8698 11.375 10.8698 11.3483 10.8698 11.0271 10.7092 11.0271 10.5955 11.0271 10.4819 10.811 10.3929 10.811 10.2241 10.811 10.0554 10.6988 9.85479 10.6988 9.77491 10.6988 9.69502 10.7948 9.80574 10.8976 9.73008 11.0004 9.65443 11.0271 9.45945 11.0271 9.45945 11.0271 9.45945 10.8652 9.56262 10.811 9.51103 10.7569 9.45945 10.5866 9.35762 10.6988 9.18291 10.811 9.0082 11.0271 8.38013 11.0271 8.38013z"/><path fill="#5EAA22" fill-rule="evenodd" d="M12.0871 5.14355C12.0871 5.14355 11.8681 5.23611 11.9411 5.37362C12.0141 5.51114 12.0404 5.57203 12.0871 5.54159C12.1339 5.51114 12.4621 5.45358 12.3886 5.29857C12.315 5.14355 12.161 5.14355 12.161 5.14355H12.0871Z" clip-rule="evenodd"/><path fill="#FFD018" d="M12.847 5.06911C12.847 5.06911 12.5577 4.94749 12.6541 5.06911C12.7505 5.19073 12.8739 5.25484 12.9627 5.25484C13.0514 5.25484 13.2359 5.22971 13.1437 5.18064C13.0514 5.13157 12.847 5.06911 12.847 5.06911Z"/><path fill="#5EAA22" fill-rule="evenodd" d="M9.99069 8.23023C9.99215 8.22271 9.98327 8.21729 9.97759 8.22243C9.91763 8.27668 9.73617 8.45909 9.81303 8.61774C9.90452 8.80655 9.996 8.87211 9.996 8.87211C9.996 8.87211 10.0517 9.16119 10.1669 9.23986C10.1669 9.23986 10.3215 9.23234 10.3292 9.00733C10.3292 9.00733 10.5919 8.93412 10.6691 9.08993C10.6691 9.08993 10.6182 9.10746 10.6182 9.23986C10.6182 9.37226 10.737 9.51569 10.737 9.51569C10.737 9.51569 10.7914 9.05904 11.036 8.76462C11.2806 8.47021 11.3506 8.4121 11.3506 8.4121V8.08081C11.3506 8.08081 10.8445 8.47254 10.737 8.79825C10.737 8.79825 10.4822 8.80633 10.3786 8.76462C10.2751 8.72292 10.5079 8.65451 10.3786 8.50628C10.2493 8.35805 10.3086 8.71499 10.1669 8.61774C9.94527 8.55919 9.97535 8.30894 9.99069 8.23023Z" clip-rule="evenodd"/><path fill="#5EAA22" fill-rule="evenodd" d="M11.0934 7.94238L13.6857 7.94238V9.44702C13.6857 9.44702 13.4744 10.6765 12.3454 11.2821C12.3454 11.2821 11.2519 10.6681 11.0934 9.44702V7.94238Z" clip-rule="evenodd"/><mask id="PCN_svg__c" width="3" height="5" x="11" y="7" mask-type="alpha" maskUnits="userSpaceOnUse"><path fill="#fff" fill-rule="evenodd" d="M11.0934 7.94238L13.6857 7.94238V9.44702C13.6857 9.44702 13.4744 10.6765 12.3454 11.2821C12.3454 11.2821 11.2519 10.6681 11.0934 9.44702V7.94238Z" clip-rule="evenodd"/></mask><g mask="url(#PCN_svg__c)"><path fill="#58A5FF" fill-rule="evenodd" d="M12.3258 7.86108L11.1932 10.0939L12.7292 8.76883L13.7863 10.4334V7.86108L12.7292 8.68433L12.3258 7.86108Z" clip-rule="evenodd"/><path fill="#FFD018" d="M12.2901 9.47562C12.2901 9.42895 12.3279 9.39111 12.3746 9.39111C12.4213 9.39111 12.4591 9.42895 12.4591 9.47562V10.9009C12.4591 10.9476 12.4213 10.9854 12.3746 10.9854C12.3279 10.9854 12.2901 10.9476 12.2901 10.9009L12.2901 9.47562Z"/><path fill="#FFD018" d="M11.9921 9.82498C11.9485 9.82498 11.9132 9.78967 11.9132 9.74611 11.9132 9.70255 11.9485 9.66724 11.9921 9.66724H12.764C12.8076 9.66724 12.8429 9.70255 12.8429 9.74611 12.8429 9.78967 12.8076 9.82498 12.764 9.82498H11.9921zM12.5318 10.7951 12.4458 10.8654C12.319 10.7104 12.2034 10.6359 12.1013 10.6359 11.9509 10.6359 11.8286 10.5096 11.7288 10.27L11.8314 10.2273C11.9158 10.43 12.0076 10.5248 12.1013 10.5248 12.2433 10.5248 12.386 10.6169 12.5318 10.7951z"/><path fill="#FFD018" fill-rule="evenodd" d="M11.629 9.88819C11.6285 9.88772 11.6277 9.88808 11.6277 9.88877V10.4299C11.6277 10.4305 11.6283 10.4308 11.6288 10.4306L12.0331 10.2631C12.0336 10.2628 12.0337 10.2621 12.0333 10.2618L11.629 9.88819Z" clip-rule="evenodd"/><path fill="#FFD018" d="M12.2542 10.7951L12.3402 10.8654C12.4669 10.7104 12.5825 10.6359 12.6847 10.6359C12.8351 10.6359 12.9574 10.5096 13.0571 10.27L12.9546 10.2273C12.8702 10.43 12.7784 10.5248 12.6847 10.5248C12.5427 10.5248 12.3999 10.6169 12.2542 10.7951Z"/><path fill="#FFD018" fill-rule="evenodd" d="M13.1569 9.88819C13.1574 9.88772 13.1583 9.88808 13.1583 9.88877V10.4299C13.1583 10.4305 13.1577 10.4308 13.1572 10.4306L12.7529 10.2631C12.7524 10.2628 12.7522 10.2621 12.7527 10.2618L13.1569 9.88819Z" clip-rule="evenodd"/><path fill="#fff" d="M12.204 8.828H12.542V9.306H12.204z"/></g></g></g><mask id="PCN_svg__d" width="9" height="7" x="0" y="0" mask-type="alpha" maskUnits="userSpaceOnUse"><path fill="#fff" d="M0 0H9V7H0z"/></mask><g mask="url(#PCN_svg__d)"><path fill="#F7FCFF" d="M-1.00214 6.49981L0.978339 7.36841L9.04494 0.944269L10.0896 -0.346497L7.97176 -0.636808L4.68159 2.13154L2.03334 3.99675L-1.00214 6.49981Z"/><path fill="#F50100" d="M-0.731018 7.10849L0.277943 7.61255L9.71445 -0.466309H8.29775L-0.731018 7.10849Z"/><path fill="#F7FCFF" d="M10.0021 6.49981L8.02166 7.36841L-0.0449371 0.944269L-1.08959 -0.346497L1.02824 -0.636808L4.31841 2.13154L6.96666 3.99675L10.0021 6.49981Z"/><path fill="#F50100" d="M9.93457 6.93661L8.92561 7.44067L4.90745 3.9817L3.71615 3.59523L-1.1901 -0.342034H0.226597L5.13009 3.50178L6.43256 3.96519L9.93457 6.93661Z"/><mask id="PCN_svg__e" width="11" height="9" x="-1" y="-1" fill="#000" maskUnits="userSpaceOnUse"><path fill="#fff" d="M-1-1H10V8H-1z"/><path fill-rule="evenodd" d="M4.99226 0H3.99226V3H0V4H3.99226V7H4.99226V4H9V3H4.99226V0Z" clip-rule="evenodd"/></mask><path fill="#F50100" fill-rule="evenodd" d="M4.99226 0H3.99226V3H0V4H3.99226V7H4.99226V4H9V3H4.99226V0Z" clip-rule="evenodd"/><path fill="#F7FCFF" d="M3.99226 0V-0.75H3.24226V0H3.99226ZM4.99226 0H5.74226V-0.75H4.99226V0ZM3.99226 3V3.75H4.74226V3H3.99226ZM0 3V2.25H-0.75V3H0ZM0 4H-0.75V4.75H0V4ZM3.99226 4H4.74226V3.25H3.99226V4ZM3.99226 7H3.24226V7.75H3.99226V7ZM4.99226 7V7.75H5.74226V7H4.99226ZM4.99226 4V3.25H4.24226V4H4.99226ZM9 4V4.75H9.75V4H9ZM9 3H9.75V2.25H9V3ZM4.99226 3H4.24226V3.75H4.99226V3ZM3.99226 0.75H4.99226V-0.75H3.99226V0.75ZM4.74226 3V0H3.24226V3H4.74226ZM0 3.75H3.99226V2.25H0V3.75ZM0.75 4V3H-0.75V4H0.75ZM3.99226 3.25H0V4.75H3.99226V3.25ZM4.74226 7V4H3.24226V7H4.74226ZM4.99226 6.25H3.99226V7.75H4.99226V6.25ZM4.24226 4V7H5.74226V4H4.24226ZM9 3.25H4.99226V4.75H9V3.25ZM8.25 3V4H9.75V3H8.25ZM4.99226 3.75H9V2.25H4.99226V3.75ZM4.24226 0V3H5.74226V0H4.24226Z" mask="url(#PCN_svg__e)"/></g></svg>

<svg xmlns="http://www.w3.org/2000/svg" fill="none" viewBox="0 0 16 12"><mask id="PCN_svg__a" width="16" height="12" x="0" y="0" maskUnits="userSpaceOnUse"><path fill="#fff" d="M0 0h16v12H0z"/></mask><g mask="url(#PCN_svg__a)"><path fill="#2E42A5" fill-rule="evenodd" d="M0 0v12h16V0H0z" clip-rule="evenodd"/><mask id="PCN_svg__b" width="16" height="12" x="0" y="0" maskUnits="userSpaceOnUse"><path fill="#fff" fill-rule="evenodd" d="M0 0v12h16V0H0z" clip-rule="evenodd"/></mask><g mask="url(#PCN_svg__b)"><path fill="#5EAA22" fill-rule="evenodd" d="M10.308 5.835s.05.52-.059.814c-.108.295-.163.466-.163.277 0-.188-.076-.337-.137-.337-.061 0-.013.187-.075.187-.061 0-.273.032-.273-.078s-.028.294.11.33c.137.036-.067.148-.158.113 0 0 .375.116.522.215 0 0 .44.522.852.458 0 0-.56-.184-.462-.535.099-.352.462-.403.462-.403s.17.054.166.196c-.005.142.124-.044.124-.044s.021-.18-.002-.223c-.023-.044.39-.128.417-.313 0 0-.423.018-.452-.03-.029-.047.131-.121.081-.213-.05-.093-.796.527-.796.527s.258-.422.258-.648c0-.227-.066-.382-.258-.382s-.157.089-.157.089zm3.884.123v.001c.028-.026.2-.176.343-.057.157.129-.079.255-.079.255s.11.101.236.101.157-.101.157-.101.01.225.42.31c0 0 .147-.199 0-.308 0 0 .174-.034.16-.168 0 0-.141.046-.243-.06-.101-.105-.299-.154-.443-.13-.365-.125-.53.12-.551.157z" clip-rule="evenodd"/><path fill="#96877D" fill-rule="evenodd" d="M11.702 7.097s.424.759.16.916c-.266.157 1.26.045 1.405 0 .144-.045-.03-.285-.189-.35-.16-.067-.816-.288-.99-.455-.174-.167-.068-.226.073-.39.14-.165.66-.23.66-.384s.33-.788.561-.836c.231-.048.107-.123.053-.123-.053 0-.372.312-.492.256-.121-.057-.136-.053 0-.189.135-.136.237-.293.058-.18-.18.113-.475.291-.617.291-.143 0-.649-.06-.586.078.063.138.09.378.363.54.273.163.154.281-.073.438a1.715 1.715 0 00-.386.388z" clip-rule="evenodd"/><path fill="#FFD018" d="M14.52 6.094l-.81 1.541s-.023.436.555.146c.579-.29.556-.496.723-.496.166 0 .22-.088.22-.088l-.112-.083s-.013-.152.058-.186c0 0-.138-.072-.158-.012-.02.06-.117-.126-.062-.126 0 0-.122.187-.147.26 0 0-.177-.068-.168-.383.008-.315-.1-.573-.1-.573zm-3.852-.244s-.412.09-.367.186c.044.094.11-.003-.092.111 0 0-.355.26-.432.232-.077-.028.055.066.055-.232 0-.297-.206-.055 0-.254.206-.198.278-.043.377-.158.099-.114.01-.053.278-.053.269 0 .181.168.181.168zm1.257 1.532s-1.153.86-1.384.925c-.23.064.474-.018.647-.131.172-.114.737-.794.737-.794z"/><path fill="#5EAA22" fill-rule="evenodd" d="M14.212 8.892s.111.679-.178.612c-.29-.067-.409-.101-.409-.101s.106.316.258.316c0 0 .258.478.158.629 0 0 .445-.343.373-.615-.072-.273.115.044.115.044s.164.075.282-.008c.118-.084-.002-.047-.12-.207-.118-.16-.089-.607-.449-.84-.36-.232-.443-.224-.443-.224s-.265-.412-.106-.385c0 0 1.137.37 1.167.466.03.095.33.077.18-.194-.15-.272-.964-.435-1.06-.512-.098-.077-.008-.367-.181-.43-.174-.063-.649-.512-.649-.729 0-.216-.223-.318-.417-.318-.194 0-.56-.053-.715-.053-.154 0-.298.246-.149.246.15 0 .022.46-.228.56-.25.1-.443.245-.729.245-.285 0 .404.234.514.141.11-.092.074-.23.443-.386.37-.157.722-.25.677-.125-.045.125.07.333.243.258.174-.076.23-.266.23-.133s.266.816.47 1.082c.204.267.723.661.723.661z" clip-rule="evenodd"/><path fill="#FFD018" d="M11.786 6.4s-.136.204 0 .204c.135 0 .352 0 .22-.103-.133-.102-.22-.102-.22-.102zm.452-.006s0 .136.094.136.177.136.177 0 .13-.09-.07-.136c-.201-.045-.201 0-.201 0zm.577.031s-.09.065-.045.18c.045.116.147.344 0 .344-.148 0-.269.082-.154.082.115 0 .32.082.32 0s.083.136.083 0v-.28c0-.08.084-.102 0-.214-.083-.112-.204-.112-.204-.112zm.209.795s.188.562.29.635c.103.072.149.684.194.75.045.067.657.402.657.582 0 .18.189-.138.094-.316-.094-.179-.39-.558-.604-.641-.214-.083-.187-.283-.232-.424-.045-.141.266.114 0-.206-.265-.32-.258-.148-.184-.148.075 0 .15-.038.075-.088-.075-.05-.29-.145-.29-.145zm-1.997 1.16s-.612 1.027-.72 1.08c-.11.053-.191.063-.247 0-.056-.064-.062.17 0 .235.061.065.246.065.349-.05 0 0 .016.289.176.507.16.217.226.157.226.28 0 .123.038.286.087.286.048 0 .086.388 0 .388-.087 0 .2.032.325-.065s.179-.171.152-.171c-.027 0-.348-.16-.348-.274 0-.114-.216-.203-.216-.372 0-.168-.112-.369-.112-.449 0-.08.096.03.199-.045.102-.075.13-.27.13-.27s-.163.103-.217.051c-.054-.051-.224-.153-.112-.328.112-.175.328-.803.328-.803z"/><path fill="#5EAA22" fill-rule="evenodd" d="M12.087 5.144s-.219.092-.146.23c.073.137.1.198.146.168.047-.03.375-.088.302-.243-.074-.155-.228-.155-.228-.155h-.074z" clip-rule="evenodd"/><path fill="#FFD018" d="M12.847 5.07s-.29-.122-.193 0c.097.12.22.185.309.185.088 0 .273-.025.18-.074-.092-.05-.296-.112-.296-.112z"/><path fill="#5EAA22" fill-rule="evenodd" d="M9.99 8.23c.002-.007-.007-.013-.012-.008-.06.055-.242.237-.165.396a.698.698 0 00.183.254s.056.29.17.368c0 0 .155-.008.163-.233 0 0 .263-.073.34.083 0 0-.05.018-.05.15s.118.276.118.276.054-.457.299-.751c.245-.295.315-.353.315-.353v-.331s-.507.392-.614.717c0 0-.255.008-.358-.033-.104-.042.129-.11 0-.259-.13-.148-.07.209-.212.112-.222-.059-.192-.309-.176-.388z" clip-rule="evenodd"/><path fill="#5EAA22" fill-rule="evenodd" d="M11.093 7.942h2.593v1.505s-.212 1.23-1.34 1.835c0 0-1.094-.614-1.253-1.835V7.943z" clip-rule="evenodd"/><mask id="PCN_svg__c" width="3" height="5" x="11" y="7" maskUnits="userSpaceOnUse"><path fill="#fff" fill-rule="evenodd" d="M11.093 7.942h2.593v1.505s-.212 1.23-1.34 1.835c0 0-1.094-.614-1.253-1.835V7.943z" clip-rule="evenodd"/></mask><g mask="url(#PCN_svg__c)"><path fill="#58A5FF" fill-rule="evenodd" d="M12.326 7.861l-1.133 2.233 1.536-1.325 1.057 1.665V7.86l-1.057.823-.403-.823z" clip-rule="evenodd"/><path fill="#FFD018" d="M12.29 9.476a.084.084 0 11.17 0V10.9a.085.085 0 01-.17 0V9.476z"/><path fill="#FFD018" d="M11.992 9.825a.079.079 0 110-.158h.772a.079.079 0 110 .158h-.772zm.54.97l-.086.07c-.127-.155-.243-.229-.345-.229-.15 0-.272-.126-.372-.366l.102-.043c.085.203.177.298.27.298.142 0 .285.092.43.27z"/><path fill="#FFD018" fill-rule="evenodd" d="M11.629 9.888h-.001v.542s0 .001 0 0l.405-.167v-.001l-.404-.374z" clip-rule="evenodd"/><path fill="#FFD018" d="M12.254 10.795l.086.07c.127-.155.242-.229.345-.229.15 0 .272-.126.372-.366l-.102-.043c-.085.203-.177.298-.27.298-.142 0-.285.092-.43.27z"/><path fill="#FFD018" fill-rule="evenodd" d="M13.157 9.888h.001v.542s0 .001 0 0l-.405-.167v-.001l.404-.374z" clip-rule="evenodd"/><path fill="#fff" d="M12.204 8.828h.338v.478h-.338z"/></g></g></g><mask id="PCN_svg__d" width="9" height="7" x="0" y="0" maskUnits="userSpaceOnUse"><path fill="#fff" d="M0 0h9v7H0z"/></mask><g mask="url(#PCN_svg__d)"><path fill="#F7FCFF" d="M-1.002 6.5l1.98.869L9.045.944l1.045-1.29-2.118-.29-3.29 2.768-2.649 1.865L-1.002 6.5z"/><path fill="#F50100" d="M-.731 7.108l1.009.505 9.436-8.08H8.298L-.731 7.109z"/><path fill="#F7FCFF" d="M10.002 6.5l-1.98.869L-.045.944-1.09-.346l2.118-.29 3.29 2.768 2.649 1.865L10.002 6.5z"/><path fill="#F50100" d="M9.935 6.937l-1.01.504-4.018-3.46-1.19-.386L-1.19-.342H.227L5.13 3.502l1.303.463 3.502 2.972z"/><mask id="PCN_svg__e" width="11" height="9" x="-1" y="-1" fill="#000" maskUnits="userSpaceOnUse"><path fill="#fff" d="M-1-1h11v9H-1z"/><path fill-rule="evenodd" d="M4.992 0h-1v3H0v1h3.992v3h1V4H9V3H4.992V0z" clip-rule="evenodd"/></mask><path fill="#F50100" fill-rule="evenodd" d="M4.992 0h-1v3H0v1h3.992v3h1V4H9V3H4.992V0z" clip-rule="evenodd"/><path fill="#F7FCFF" d="M3.992 0v-.75h-.75V0h.75zm1 0h.75v-.75h-.75V0zm-1 3v.75h.75V3h-.75zM0 3v-.75h-.75V3H0zm0 1h-.75v.75H0V4zm3.992 0h.75v-.75h-.75V4zm0 3h-.75v.75h.75V7zm1 0v.75h.75V7h-.75zm0-3v-.75h-.75V4h.75zM9 4v.75h.75V4H9zm0-1h.75v-.75H9V3zM4.992 3h-.75v.75h.75V3zm-1-2.25h1v-1.5h-1v1.5zM4.742 3V0h-1.5v3h1.5zM0 3.75h3.992v-1.5H0v1.5zM.75 4V3h-1.5v1h1.5zm3.242-.75H0v1.5h3.992v-1.5zM4.742 7V4h-1.5v3h1.5zm.25-.75h-1v1.5h1v-1.5zM4.242 4v3h1.5V4h-1.5zM9 3.25H4.992v1.5H9v-1.5zM8.25 3v1h1.5V3h-1.5zm-3.258.75H9v-1.5H4.992v1.5zM4.242 0v3h1.5V0h-1.5z" mask="url(#PCN_svg__e)"/></g></svg>
